X:1
T:Sull'aria (The Letter Duet)
T:Sull'aria (The Letter Duet)
T:W. A. Mozart (1756-1791)
C:W. A. Mozart
%%score 1 2 { 3 | 4 }
L:1/8
Q:3/8=50
M:6/8
K:Bb
V:1 treble+8 nm="Recorder 1" snm="Rec. 1"
V:2 treble+8 nm="Recorder 2" snm="Rec. 2"
V:3 treble nm="Piano" snm="Pno."
V:4 bass 
V:1
 z6 | z3 z2 f | d B2 z3 | z6 | z6 | z6 | z6 | z6 | ecf dBf | f2 c .c3 | z6 | z6 | z6 | z6 | %14
 z3 GBd | cAc BAG | .F3 z3 | z6 | z6 | z6 | z6 | z3 z BB | B .e2 z z2 | z6 | z6 | z3 z BB | %26
 fdB z3 | z3 FGA | B .B2 z3 | z6 | z3 z cc | dBf ecf | .d3 z3 | d3- def | g3 e2 d | c3 f3 | %36
 .B3 z3 | z6 | B3 c3 | dBf ecA | BdB F3 | z6 | c3- ceg | fdB FGA | B B2 z3 | z3 z .cc | dBf ecf | %47
 .d3 z2 c | d/f/=e/f/e/f/ c/f/e/f/e/f/ | d3- def | g3 e2 d | c3 f3 | d3 def | g3 bge | c3 f3 | %55
 B2 d B2 d | .f3 z3 | z6 | z2 .F F2 G/A/ | .B2 d e2 f | .d2 B c2 A | .B3 z3 |] %62
V:2
 z6 | z6 | z6 | B3 c3 | dBf ecA | BdB F3 | z6 | z6 | z6 | z6 | c3- c2 f | f=ed dcB | B .A2 z3 | %13
 z6 | z6 | z6 | z6 | B3- Bcd | f e2- edc | BAB cde | _d2 =d z3 | z6 | z2 z Bdf | ecf dBf | %24
 f2 c .c3 | z6 | z6 | z6 | z6 | z6 | z6 | z6 | z6 | B3- Bcd | e3- ecB | A3 A3 | .B3 z3 | %37
 z3 z .F/.F/.F/F/ | .B .B2 z3 | z6 | B3- Bdf | ecf dBf | f2 c z3 | z6 | z3 z .cc | dBf ecf | %46
 .d3 z cc | d/f/=e/f/e/f/ c/f/e/f/e/f/ | .d3 z3 | B3- Bcd | e3 c2 B | .A3 A3 | B3 Bcd | e3 gec | %54
 .A3 A3 | .B3 z3 | z2 .F F2 G/A/ | B2 d B2 .d | .f3 z3 | z2 B c2 A | .B2 D E2 F | .D3 z z2 |] %62
V:3
 B3 c3 | dBf ecA | BdB F3 | .B3 .A3 | .B3 .F3 | .D3 .B3 | cec F3 | fdf b3 | .e3 .d3 | .c3 .F3 | %10
 .A3 .F3 | .G3 .C3 | .D3 .c3 | G3- GAB | cfA .d3 | .c3 .=e3 | fFF FGA | .B3 .D3 | .C3 .E3 | %19
 .F3 .F3 | .B3 de=e | f3- fdB | gbg fbf | .e3 .d3 | .c3 z cd | e3- efg | fbd ceg | fdB FGA | %28
 .B3 z cc | dBf ecf | .d3 e3 | d3 c3 | dd'b fdB | B3- Bcd | e3 c2 B | A3 A3 | .B3 A3 | dBf ecA | %38
 B .B2 .A3 | .B3 .F3 | B3- Bdf | ecf dBf | f2 c e3 | d3 c3 | .B3 z cc | dBf ecf | .d3 z2 c | %47
 d3 c3 | d3 e3 | d.b.b b3- | b3 z3 | A3 A3 | z .B.B B3- | B3 c3 | z6 | B,DD DDD | %56
 [CE][CE][CE] [CE][CE][CE] | DDD DDD | [CE][CE][CE] [CE][CE][CE] | f3 c3 | B3 a3 | .b3 z3 |] %62
V:4
 B,,D,F, C,E,F, | B,,D,F, A,,C,E, | D,F,D, B,,D,F, | B,,D,F, C,E,F, | B,,D,F, A,,C,E, | %5
 B,,D,F, B,,D,F, | A,,C,F, A,,C,F, | B,,D,F, B,,D,F, | C,E,F, B,,D,F, | A,,C,F, A,,C,F, | %10
 C,F,A, C,F,A, | C,G,B, B,,=E,G, | A,,D,F, A,,D,F, | G,,D,F, G,,D,=E, | A,,C,F, G,,D,F, | %15
 A,,C,F, B,,C,=E, | A,,C,F, A,,C,F, | B,,D,F, B,,D,F, | G,,C,E, C,E,G, | C,E,F, A,,C,F, | %20
 B,,D,F, B,,C,_D, | D,F,B, B,,D,F, | B,,E,G, B,,D,F, | C,E,F, B,,D,F, | A,,C,F, A,,F,A, | %25
 B,,E,G, B,,G,B, | B,,F,B, E,G,C | D,F,B, C,E,F, | B,,D,F, C,E,F, | B,,D,F, A,,C,F, | %30
 B,,D,F, C,E,F, | B,,D,F, A,,C,F, | B,,D,F, B,,D,F, | B,,D,F, B,A,_A, | G,B,E C,E,G, | %35
 A,,C,F, E,D,C, | B,,D,F, C,E,F, | B,,D,F, A,,C,E, | D,F,D, C,E,F, | B,,D,F, A,,C,E, | %40
 B,,D,F, D,F,B, | C,E,F, B,,D,F, | A,,C,F, G,CE | D,F,B, C,E,F, | B,,D,F, C,E,F, | %45
 B,,D,F, A,,C,F, | B,,D,F, C,E,F, | B,,D,F, A,,C,F, | B,,D,F, C,E,F, | B,,D,F, B,A,_A, | %50
 G,B,E C,E,G, | A,,C,F, E,D,C, | B,,D,F, B,A,_A, | G,B,E C,E,G, | A,,C,F, E,D,C, | %55
 B,,B,,B,, B,,B,,B,, | A,,A,,A,, A,,A,,A,, | B,,B,,B,, B,,B,,B,, | A,,A,,A,, A,,A,,A,, | %59
 .B,,3 A,3 | .B,3 [E,G,]3 | .[B,,D,]3 z3 |] %62

